!!!!SEGMENT: pl-sa--575-a-ix-55--014_anonim--keyboard-piece.krn
!!!cenid: 18xx:628
!!!COM: Anonim
!!!COM-rismID: pe30004985
!!!CDT:
!!!CNT:
!!!OTL: [Keyboard piece]
!!!PDT:
!!!AGN: Secular
!!!SMS-siglum: PL-SA
!!!SMS-shelfmark: 575/A IX 55
!!!SMS-shelfwork: 014 W
!!!SMS-variant:
!!!SMS-altvar:
!!!NIFC-rismSourceID: 1001109856
!!!NIFC-rismChildID: 1001109856
!!!NIFC-islandoraID: none
!!!URL-pdf-islandora:
!!!URL-scan: https://bc.bdsandomierz.pl/dlibra/publication/1381/edition/1349/content @EN{Scan in the Sandomierz Diocese Digital Library} @PL{Skany w portalu Cyfrowa Biblioteka Diecezjalna w Sandomierzu}
!!!IIIF:
!!!ONB-nifc: Str. 6, pięciolinie 7-8 do zmiany metrum. Uwaga: tylko partia prawej ręki
!!!AIN: 1 piano
!!!key:
**kern
*part1
*staff1
*Ipiano
*I"Piano
*clefG2
*k[b-]
*f:
*M2/4
=1
!LO:TX:a:t=P:problem=w źródle caudy nut na środku
8ff\L
!LO:TX:a:t=P:problem=w źródle nadmiarowa kreska taktowa
8ff\J
8ee\L
8cc\J
=2
8ff\L
8ff\J
8ee\L
8cc\J
=3
8dd\L
8ff\J
8ee\L
8gg\J
=4
8gg\L
8ff\J
4ff\
=5
8ff\L
8ff\J
8ee\L
8cc\J
=6
8ff\L
8ff\J
8ee\L
8cc\J
=7
8dd\L
8ff\J
8ee\L
8gg\J
=8
8gg\L
8ff\J
4ff\
=9||
8ff\L
8aa\J
8aa\L
8ccc\J
!LO:LB:g=original
=10
!LO:TX:a:t=P:problem=W źródle po łamaniu systemu brak klucza
8ccc\L
8bb-\J
4gg\
=11
8ff\L
8aa\J
8aa\L
8ccc\J
=12
8ccc\L
8bb-\J
4gg\
=13
8ff\L
8ff\J
8ee\L
8cc\J
=14
8dd\L
8ff\J
8ee\L
8gg\J
=15
8gg\L
8ff\J
4ff\
==
*-
!!!RDF**kern: > = above
!!!RDF**kern: < = below
!!!EED: Wojciech Jakubiak-Danek
!!!EEV: 2020-12-10
!!!ENC: Kamil Watkowski
!!!END: 2020-06-19
!!!YEC: Copyright 2022 Narodowy Instytut Fryderyka Chopina (https://polishscores.org)
!!!YEM: License CC-BY-4.0 (https://creativecommons.org/licenses/by/4.0)
